X:1
T:Quand'io pens'al martire
T:Girolamo Scotto
T:Source : Secondo Libro delle Muse a tre voci---Venetia---G.Scotto---1562. Editor: André Vierendeels (13/05/16).
T:Notes : Original clefs :  C1, C3, C4 Editorial accidentals above the staff Original note values have been halved Text by cardinale Pietro Bembo "Settimi toni"  
T:Quand'io pens'al martire
T:©
T:©
T:©
T:©
T:©
T:©
C:Girolamo Scotto
Z:©
%%score [ 1 [ 2 3 ] ]
L:1/8
Q:1/4=85
M:2/2
K:C
V:1 treble nm="Soprano" snm="S"
V:2 treble-8 nm="Tenor 1" snm="T 1"
V:3 treble-8 nm="Tenor 2" snm="T 2"
V:1
 G4 c4- | c2 B2 G2 B2 | A4 G4- | G2 G2 A2 B2- | BcdB c2 A2 | B4 A2 d2- | d2 c2 A2 c2- | %7
w: Quand' io|_ pens' al mar-|ti- re,|_ A- mor, che|_ _ _ _ tu mi|da- i, gra-|* vo- so e|
 c2 B2 c2 G2 | ABcA B2 A2- | AG G4 F2 | G4 z2 F2 | G2 A2 F4 | E2 G2 G4- | G2 G2 _B2 B2 | %14
w: _ for- te, cor-|ro per gir a mor- *||te, per|gir a mor-|te, co- si|_ spe- ran- d'i|
 A3 G F2 E2 | D4 E4 | G4 c4- | c2 B2 G2 B2 | A4 G2 G2 | A6 G2 | E2 G2 F2 D2 | E3 F G2 A2 | %22
w: miei dan- ni fi-|ni- re,|ma poi|_ ch'io giun- g'al|pas- so, che|por- to'in|que- sto mar pien|di tor- men- *|
 G4 z2 G2- | G2 F2 G3 A | B2 c2 B3 A | G2 A4 GF | E2 G2 ABcA | B2 A3 G G2- | G2 F2 G4 | %29
w: to, pien|_ di _ _|_ tor- men- *||to, tan- to pia- cer ne|sen- * * *|* * to,|
 z2 F2 G2 A2 | F4 E2 G2- | G2 F2 G4 | z2 C4 G2- | G2 G2 F2 D2 | E3 D EF G2 | A2 D2 E2 G2- | %36
w: tan- to pia-|cer ne sen|_ _ to,|che l'al-|* ma si rin-|for- * * * *|za, ond' io nol|
 GF/E/ F2 GFED | C2 C2 F4- | F2 E2 C2 E2 | D4 E2 G2 | A6 B2 | c6 B2 | A3 G AB c2- | c2 B2 c4 | %44
w: _ _ _ _ pas- * * *|so, co- s'il|_ vi- ver m'an-|ci- de, co-|si la|mor- te|mi ri- tor- na'in vi-|* * ta,|
 z2 c4 c2 | B4 A4- | A2 c4 B2 | A3 G F2 E2 | D4 E4 | G4 c4- | c2 B2 G2 B2 | A4 G4 | G2 G4 F2 | %53
w: O mi-|se- ria|_ in- fi-|ni- * * *|* ta,|che lun'|_ ap- por- ta|e l'al-|tra non re-|
 G3 F E2 D2 | E2 G4 F2 | G8 |] %56
w: ci- * * *||de.|
V:2
 e4 e4- | e2 e2 e2 g2- | g2 f2 gfed | e6 d2 | d2 g2 g2 f2 | g2 d2 f4- | f2 e2 f3 e | d4 c4 | %8
w: Quand' io|_ pens' al mar-|ti- * * * * *|re, A-|mor, che tu mi|da- i, gra-|* vo- so e|for- te,|
 z2 c2 defd | e3 d c3 A | BcdB c2 d2- | dc c3 B/A/ B2 | c2 e2 e4- | e2 e2 d2 d2 | f3 e dc c2- | %15
w: cor- ro per gir a|mor- * te, cor-|ro per gir a mor- *||te, co- si|_ spe- ran- d'i|miei dan- ni fi- ni-|
 c2 B2 c4 | e4 e4- | e2 e2 e2 g2- | g2 f2 gfed | cBAB cdef | gG c3 B/A/ B2 | c2 G2 c4- | %22
w: * * re,|ma poi|_ ch'io giun- g'al|_ pas- * * * *||* * so, _ _ _|_ che por-|
 c2 B2 G2 B2 | A2 A2 GABc | d2 e3 d d2- | dc c4 B2 | c4 z2 c2 | defd e3 d | c3 A BcdB | %29
w: * to'in que- sto|mar pien di _ _ _|_ tor- * men-||to, tan-|to pia- cer ne sen- to,|tan- to pia- cer ne sen-|
 cA d3 c c2- | cB/A/ B2 c3 B | A4 G2 c2- | c2 A3 A e2- | ed c3 B/A/ B2 | c2 G2 c4- | c2 B2 c3 B | %36
w: ||* to, che|_ l'al- ma si|_ rin- for- * * *|za, ond' io|_ nol pas- *|
 A4 G2 G2 | A6 A2 | A2 G2 A2 c2- | cB/A/ B2 c2 c2 | f6 e2 | c2 e2 d3 e | f6 e2 | d4 e4 | z2 A4 A2 | %45
w: * so, co-|s'il vi-|ver m'an ci- *|* * * * de, co-|si la|mor- te mi ri-|tor- na'in|vi- ta,|O mi-|
 d4 f4- | f2 e2 f2 d2 | f3 e d2 c2- | c2 B2 c4 | e4 e4- | e2 e2 e2 g2- | g2 f2 gfed | e2 d2 c2 A2 | %53
w: se- ria|_ in- fi- ni-||* * ta,|che lun'|_ ap- por- ta|_ e l'al- * * *|* * tra non|
 B2 c4 B2 | c3 B A4 | B8 |] %56
w: re- ci- *||de.|
V:3
 c4 A4- | A2 G2 c2 G2 | d4 G2 G2 | c6 B2 | G2 B2 A4 | G4 D3 E | FG A4 F2 | G4 C2 E2 | FGAA G2 F2 | %9
w: Quand' io|_ pens' al mar-|ti- re, A-|mor, che|tu mi dai|gra- vo- *|* * so e|for- te, cor-|ro per gir a mor- te,|
 z ccB AG A2 | G3 G F2 D2 | E2 F2 D4 | C2 c2 c4- | c2 c2 G2 G2 | D2 D2 F2 C2 | G4 C2 C2- | %16
w: cor- ro per gir a mor-|te, cor- ro per|gir a mor-|te, co- si|_ spe- ran- d'i|miei dan- ni fi-|ni- re, ma|
 C2 c4 A2 | A2 G2 c2 G2 | d4 G2 C2 | F6 E2 | C2 E2 D4 | C3 D E2 F2 | C2 E3 F G2 | D4 G4 | %24
w: _ poi ch'io|giun- g'al pas- *|* so, che|por- t'in|que- sto mar|pien _ _ di|tor- men- * *|* to,|
 z2 C2 G3 F | E2 F2 D4 | C2 E2 FGAA | G2 F2 z ccB | AG A2 G3 G | F2 D2 E2 F2 | D4 C4 | z4 z2 C2 | %32
w: pien di _|_ tor- men-|to, tan- to pia- cer ne|sen- to, tan- to pia-|cer ne sen- to, tan-|to pia- cer ne|sen- to,|che|
 F6 E2 | C2 E2 D4 | C6 C2 | F2 G2 C4 | D4 E2 E2 | F3 E D4- | D2 E2 F2 C2 | G4 C4 | z2 D2 F2 G2 | %41
w: l'al- ma|si rin- for-|za, ond'|io nol pas-|so, co- s'il|_ _ _|* vi- ver m'an-|ci- de,|co- si la|
 A2 c2 G4 | D2 d4 c2 | G4 c4 | z2 F4 F2 | G4 d4 | A3 G F2 G2 | D6 E2 | F2 G2 C2 C2- | C2 c4 A2- | %50
w: mor- te mi|ri- tor- na'in|vi- ta,|O mi-|se- ria,|O mi- se- ria|in- fi-|ni- * ta, che|_ lun' ap-|
"^#" A2 G2 c2 G2 | d4 G2 c2- | c2 B2 A4 | G2 CD EF G2 | C4 D4 | G8 |] %56
w: * por- ta e|l'al- tra non|_ re- ci-|||de.|

